src/topics/icons/google-gsuite.svg

<svg height="127" preserveAspectRatio="xMidYMid" viewBox="0 0 512 127" width="512" xmlns="http://www.w3.org/2000/svg"><path d="m94.1061887 35.9283057c-3.9824146-4.0689888-8.3111261-7.1856611-12.8995604-9.3500169-4.5884342-2.1643558-10.3889076-3.2032465-17.0551234-3.2032465-5.3676023 0-10.4754819.9523165-15.2370646 2.8569496s-8.9171457 4.5884342-12.4666892 8.0514034c-3.6361177 3.4629693-6.4930673 7.7051066-8.5708488 12.6398377-2.0777816 4.9347312-3.1166723 10.3889077-3.1166723 16.4491038 0 6.0601962 1.0388907 11.5143727 3.1166723 16.4491038 2.0777815 4.9347312 4.9347311 9.0902943 8.5708488 12.5532635s7.878255 6.2333446 12.6398377 8.1379779c4.7615827 1.904633 9.9560365 2.856949 15.410213 2.856949 5.8004735 0 10.9083531-.779168 15.2370646-2.424078 4.3287116-1.6449105 8.0514035-3.8958405 11.1680758-6.6662158 2.0777815-1.9046331 3.9824146-4.2421373 5.627325-7.0125127 1.6449103-2.8569496 2.9435238-5.9736219 3.8958408-9.4365912h-36.6209v-20.7778153h59.736219c.346297 1.3851877.60602 3.0300981.865742 5.1078796.259723 2.0777815.346297 3.9824146.346297 5.9736219 0 8.2245519-1.212039 15.6699358-3.636117 22.5093-2.424079 6.8393642-6.146771 12.8129865-10.994928 18.0940145-5.454176 5.800473-11.9472435 10.215759-19.5657758 13.419005-7.6185322 3.203247-16.3625295 4.761583-26.1454176 4.761583-8.8305715 0-17.1416977-1.558336-24.9333784-4.761583-7.7916808-3.203246-14.631045-7.618532-20.5180927-13.245857-5.8004734-5.627325-10.38890767-12.2935406-13.85187689-19.9986471-3.46296923-7.7051066-5.10787961-16.2759554-5.10787961-25.4528238 0-9.1768685 1.73148461-17.6611431 5.10787961-25.4528238 3.37639499-7.7916808 7.96482919-14.4578966 13.85187689-20.0852216 5.8004735-5.6273249 12.6398377-9.95603648 20.5180927-13.15928301 7.878255-3.20324654 16.1893811-4.76158269 24.9333784-4.76158269 10.0426107 0 18.9597565 1.73148461 26.664863 5.19445384 7.7051066 3.46296922 14.3713224 8.22455186 19.9986474 14.28474806zm153.4961113 55.7538045c0 10.6486308-3.895841 19.2194788-11.687522 25.7125468-7.878254 6.319919-17.487994 9.523165-28.829218 9.523165-10.042611 0-18.959757-2.943524-26.664863-8.830571-7.705107-5.887048-12.986135-13.938452-15.929659-24.0676365l14.890768-6.1467704c1.038891 3.6361177 2.424078 6.9259384 4.242137 9.8694623 1.818059 2.9435236 3.895841 5.4541766 6.319919 7.5319576 2.424078 2.077782 5.10788 3.722692 8.051403 4.934732 2.943524 1.212039 6.060197 1.818058 9.350017 1.818058 7.099087 0 12.986135-1.818058 17.487995-5.54075 4.50186-3.636118 6.75279-8.5708491 6.75279-14.6310453 0-5.1078796-1.904633-9.4365911-5.627325-13.0727088-3.462969-3.4629692-10.042611-6.9259385-19.65235-10.2157592-9.696314-3.4629693-15.75651-5.8870477-18.180589-7.0990869-12.89956-6.5796416-19.306053-16.1893812-19.306053-29.0023673 0-8.9171458 3.549543-16.5356781 10.64863-22.8555969 7.272235-6.31991884 16.102807-9.52316537 26.664863-9.52316537 9.263443 0 17.314846 2.33750423 24.067636 7.09908691 6.75279 4.67500846 11.341224 10.47548196 13.592154 17.48799456l-14.457896 5.9736219c-1.385188-4.5018599-4.068989-8.3111261-8.051403-11.2546499-3.982415-3.0300981-8.917146-4.50186-14.631045-4.50186-6.146771 0-11.25465 1.7314846-15.410214 5.1078796-4.155563 3.1166723-6.233344 7.2722354-6.233344 12.2935407 0 4.1555631 1.64491 7.7916808 4.934731 10.8217789 3.636118 3.030098 11.514373 6.6662157 23.548191 10.8217788 12.293541 4.1555631 21.124112 9.3500169 26.40514 15.410213 5.10788 6.0601962 7.705107 13.50558 7.705107 22.3361515zm86.487656 32.4653368h-14.890768v-11.514373h-.692593c-2.337505 4.068989-6.060197 7.445384-10.908354 10.215759-4.934731 2.683801-10.04261 4.068989-15.323638 4.068989-10.21576 0-18.00744-2.943524-23.461617-8.743997-5.454176-5.800474-8.224552-14.1116-8.224552-24.8468044v-52.2908353h15.583362v51.2519446c.346297 13.5921541 7.185661 20.3449441 20.518092 20.3449441 6.233345 0 11.427799-2.510653 15.583362-7.531958s6.233345-11.0815015 6.233345-18.0940142v-45.9709165h15.583361zm35.582009-111.767332c0 3.0300981-1.038891 5.627325-3.203247 7.7916807-2.164355 2.1643558-4.761582 3.2032466-7.79168 3.2032466-3.030099 0-5.627325-1.0388908-7.791681-3.2032466-2.164356-2.1643557-3.203247-4.7615826-3.203247-7.7916807 0-3.03009809 1.038891-5.62732501 3.203247-7.79168078 2.164356-2.16435576 4.761582-3.20324653 7.791681-3.20324653 3.030098 0 5.627325 1.03889077 7.79168 3.20324653 2.164356 2.16435577 3.203247 4.76158269 3.203247 7.79168078zm-3.203247 28.6560703v83.1112617h-15.583361v-83.1112617zm47.87555 84.4964487c-6.75279 0-12.380115-2.077781-16.881975-6.233344s-6.75279-10.042611-6.839364-17.487995v-46.4903616h-14.631045v-14.2847481h14.54447v-25.4528238h15.583362v25.4528238h20.344944v14.2847481h-20.344944v41.3824822c0 5.5407504 1.038891 9.2634424 3.203246 11.2546504 2.164356 1.991207 4.588435 2.943523 7.272236 2.943523 1.212039 0 2.424078-.173148 3.636118-.432871 1.212039-.259722 2.25093-.692594 3.28982-1.125465l4.934731 13.938451c-3.89584 1.471762-8.657423 2.25093-14.111599 2.25093zm58.351031 1.298614c-12.206966 0-22.249577-4.155563-30.214406-12.553264-7.878255-8.3977-11.86067-18.9597561-11.86067-31.686168 0-12.6398376 3.809266-23.2018938 11.514373-31.5995942 7.705106-8.3977003 17.487994-12.6398376 29.521813-12.6398376 12.29354 0 22.163003 3.9824146 29.435238 11.9472438s10.908353 19.132905 10.908353 33.5042273l-.173148 1.7314846h-65.27697c.259722 8.1379777 2.943523 14.7176191 8.137977 19.6523501s11.427799 7.445384 18.700034 7.445384c9.956037 0 17.747717-4.934731 23.375042-14.8907676l13.938452 6.7527896c-3.722692 7.012513-8.917146 12.46669-15.496788 16.449104-6.666216 3.895841-14.198174 5.887048-22.5093 5.887048zm-24.933378-54.2820427h47.702401c-.432871-5.8004735-2.770375-10.5620562-7.012513-14.3713223-4.242137-3.8092662-9.956036-5.7138992-17.055123-5.7138992-5.887048 0-10.908353 1.8180588-15.150491 5.4541765-4.328711 3.7226919-7.099086 8.5708488-8.484274 14.631045z" fill="#737373"/></svg>

<?xml version="1.0" encoding="UTF-8"?>
<svg width="512px" height="127px" viewBox="0 0 512 127" version="1.1" xmlns="http://www.w3.org/2000/svg" xmlns:xlink="http://www.w3.org/1999/xlink" preserveAspectRatio="xMidYMid">
    <g>
        <path d="M94.1061887,35.9283057 C90.1237741,31.8593169 85.7950626,28.7426446 81.2066283,26.5782888 C76.6181941,24.413933 70.8177207,23.3750423 64.1515049,23.3750423 C58.7839026,23.3750423 53.676023,24.3273588 48.9144403,26.2319919 C44.1528576,28.136625 39.9972946,30.8204261 36.4477511,34.2833953 C32.8116334,37.7463646 29.9546838,41.9885019 27.8769023,46.923233 C25.7991207,51.8579642 24.76023,57.3121407 24.76023,63.3723368 C24.76023,69.432533 25.7991207,74.8867095 27.8769023,79.8214406 C29.9546838,84.7561718 32.8116334,88.9117349 36.4477511,92.3747041 C40.0838688,95.8376733 44.3260061,98.6080487 49.0875888,100.512682 C53.8491715,102.417315 59.0436253,103.369631 64.4978018,103.369631 C70.2982753,103.369631 75.4061549,102.590463 79.7348664,100.945553 C84.063578,99.3006425 87.7862699,97.0497125 90.9029422,94.2793372 C92.9807237,92.3747041 94.8853568,90.0371999 96.5302672,87.2668245 C98.1751775,84.4098749 99.473791,81.2932026 100.426108,77.8302333 L63.805208,77.8302333 L63.805208,57.052418 L123.541427,57.052418 C123.887724,58.4376057 124.147447,60.0825161 124.407169,62.1602976 C124.666892,64.2380791 124.753466,66.1427122 124.753466,68.1339195 C124.753466,76.3584714 123.541427,83.8038553 121.117349,90.6432195 C118.69327,97.4825837 114.970578,103.456206 110.122421,108.737234 C104.668245,114.537707 98.1751775,118.952993 90.5566452,122.156239 C82.938113,125.359486 74.1941157,126.917822 64.4112276,126.917822 C55.5806561,126.917822 47.2695299,125.359486 39.4778492,122.156239 C31.6861684,118.952993 24.8468042,114.537707 18.9597565,108.910382 C13.1592831,103.283057 8.57084883,96.6168414 5.10787961,88.9117349 C1.64491038,81.2066283 0,72.6357795 0,63.4589111 C0,54.2820426 1.73148461,45.797768 5.10787961,38.0060873 C8.4842746,30.2144065 13.0727088,23.5481907 18.9597565,17.9208657 C24.76023,12.2935408 31.5995942,7.96482922 39.4778492,4.76158269 C47.3561042,1.55833615 55.6672303,0 64.4112276,0 C74.4538383,0 83.3709841,1.73148461 91.0760906,5.19445384 C98.7811972,8.65742306 105.447413,13.4190057 111.074738,19.4792019 L94.1061887,35.9283057 Z M247.6023,91.6821102 C247.6023,102.330741 243.706459,110.901589 235.914778,117.394657 C228.036524,123.714576 218.426784,126.917822 207.08556,126.917822 C197.042949,126.917822 188.125803,123.974298 180.420697,118.087251 C172.71559,112.200203 167.434562,104.148799 164.491038,94.0196145 L179.381806,87.8728441 C180.420697,91.5089618 181.805884,94.7987825 183.623943,97.7423064 C185.442002,100.68583 187.519784,103.196483 189.943862,105.274264 C192.36794,107.352046 195.051742,108.996956 197.995265,110.208996 C200.938789,111.421035 204.055462,112.027054 207.345282,112.027054 C214.444369,112.027054 220.331417,110.208996 224.833277,106.486304 C229.335137,102.850186 231.586067,97.9154549 231.586067,91.8552587 C231.586067,86.7473791 229.681434,82.4186676 225.958742,78.7825499 C222.495773,75.3195807 215.916131,71.8566114 206.306392,68.5667907 C196.610078,65.1038214 190.549882,62.679743 188.125803,61.4677038 C175.226243,54.8880622 168.81975,45.2783226 168.81975,32.4653365 C168.81975,23.5481907 172.369293,15.9296584 179.46838,9.6097396 C186.740615,3.28982076 195.571187,0.0865742306 206.133243,0.0865742306 C215.396686,0.0865742306 223.448089,2.42407846 230.200879,7.18566114 C236.953669,11.8606696 241.542103,17.6611431 243.793033,24.6736557 L229.335137,30.6472776 C227.949949,26.1454177 225.266148,22.3361515 221.283734,19.3926277 C217.301319,16.3625296 212.366588,14.8907677 206.652689,14.8907677 C200.505918,14.8907677 195.398039,16.6222523 191.242475,19.9986473 C187.086912,23.1153196 185.009131,27.2708827 185.009131,32.292188 C185.009131,36.4477511 186.654041,40.0838688 189.943862,43.1139669 C193.57998,46.1440649 201.458235,49.7801826 213.492053,53.9357457 C225.785594,58.0913088 234.616165,63.2857626 239.897193,69.3459587 C245.005073,75.4061549 247.6023,82.8515387 247.6023,91.6821102 Z M334.089956,124.147447 L319.199188,124.147447 L319.199188,112.633074 L318.506595,112.633074 C316.16909,116.702063 312.446398,120.078458 307.598241,122.848833 C302.66351,125.532634 297.555631,126.917822 292.274603,126.917822 C282.058843,126.917822 274.267163,123.974298 268.812986,118.173825 C263.35881,112.373351 260.588434,104.062225 260.588434,93.3270206 L260.588434,41.0361853 L276.171796,41.0361853 L276.171796,92.2881299 C276.518093,105.880284 283.357457,112.633074 296.689888,112.633074 C302.923233,112.633074 308.117687,110.122421 312.27325,105.101116 C316.428813,100.079811 318.506595,94.0196145 318.506595,87.0071018 L318.506595,41.0361853 L334.089956,41.0361853 L334.089956,124.147447 Z M369.671965,12.380115 C369.671965,15.4102131 368.633074,18.00744 366.468718,20.1717957 C364.304363,22.3361515 361.707136,23.3750423 358.677038,23.3750423 C355.646939,23.3750423 353.049713,22.3361515 350.885357,20.1717957 C348.721001,18.00744 347.68211,15.4102131 347.68211,12.380115 C347.68211,9.35001691 348.721001,6.75278999 350.885357,4.58843422 C353.049713,2.42407846 355.646939,1.38518769 358.677038,1.38518769 C361.707136,1.38518769 364.304363,2.42407846 366.468718,4.58843422 C368.633074,6.75278999 369.671965,9.35001691 369.671965,12.380115 Z M366.468718,41.0361853 L366.468718,124.147447 L350.885357,124.147447 L350.885357,41.0361853 L366.468718,41.0361853 Z M414.344268,125.532634 C407.591478,125.532634 401.964153,123.454853 397.462293,119.29929 C392.960433,115.143727 390.709503,109.256679 390.622929,101.811295 L390.622929,55.3209334 L375.991884,55.3209334 L375.991884,41.0361853 L390.536354,41.0361853 L390.536354,15.5833615 L406.119716,15.5833615 L406.119716,41.0361853 L426.46466,41.0361853 L426.46466,55.3209334 L406.119716,55.3209334 L406.119716,96.7034156 C406.119716,102.244166 407.158607,105.966858 409.322962,107.958066 C411.487318,109.949273 413.911397,110.901589 416.595198,110.901589 C417.807237,110.901589 419.019276,110.728441 420.231316,110.468718 C421.443355,110.208996 422.482246,109.776124 423.521136,109.343253 L428.455867,123.281704 C424.560027,124.753466 419.798444,125.532634 414.344268,125.532634 Z M472.695299,126.831248 C460.488333,126.831248 450.445722,122.675685 442.480893,114.277984 C434.602638,105.880284 430.620223,95.3182279 430.620223,82.591816 C430.620223,69.9519784 434.429489,59.3899222 442.134596,50.9922218 C449.839702,42.5945215 459.62259,38.3523842 471.656409,38.3523842 C483.949949,38.3523842 493.819412,42.3347988 501.091647,50.299628 C508.363882,58.2644572 512,69.432533 512,83.8038553 L511.826852,85.5353399 L446.549882,85.5353399 C446.809604,93.6733176 449.493405,100.252959 454.687859,105.18769 C459.882313,110.122421 466.115658,112.633074 473.387893,112.633074 C483.34393,112.633074 491.13561,107.698343 496.762935,97.7423064 L510.701387,104.495096 C506.978695,111.507609 501.784241,116.961786 495.204599,120.9442 C488.538383,124.840041 481.006425,126.831248 472.695299,126.831248 Z M447.761921,72.5492053 L495.464322,72.5492053 C495.031451,66.7487318 492.693947,61.9871491 488.451809,58.177883 C484.209672,54.3686168 478.495773,52.4639838 471.396686,52.4639838 C465.509638,52.4639838 460.488333,54.2820426 456.246195,57.9181603 C451.917484,61.6408522 449.147109,66.4890091 447.761921,72.5492053 Z" fill="#737373" fill-rule="nonzero"></path>
    </g>
</svg>
